assets/plum.svg

<svg width="73" height="103" viewBox="0 0 73 103" fill="none" xmlns="http://www.w3.org/2000/svg">
<g clip-path="url(#clip0_84_573)">
<path d="M26.27 99.44C25.2215 99.2277 24.1864 98.9539 23.17 98.62C5.53004 92.8 -3.07996 70.81 4.00004 49.5C11.08 28.19 31 15.65 48.67 21.5C49.6928 21.8327 50.6947 22.2268 51.67 22.68C37.67 20.09 21.67 33.11 15.06 53.18C8.45004 73.25 13.45 93.17 26.27 99.44Z" stroke="#EEEEEE" stroke-width="3.5" stroke-linejoin="round"/>
<path d="M67.91 70.5999C60.91 91.9099 43.34 105.27 28.73 100.45C27.8877 100.174 27.0657 99.8402 26.27 99.4499C13.45 93.1699 8.37999 73.2199 15 53.1499C21.62 33.0799 37.56 20.0599 51.6 22.6499C52.4738 22.8075 53.3358 23.0247 54.18 23.2999C68.79 28.1199 74.94 49.2999 67.91 70.5999Z" stroke="#EEEEEE" stroke-width="3.5" stroke-miterlimit="10"/>
<path d="M51.6001 22.65C51.9101 20.56 54.0001 7.91998 64.0001 3.08998C65.6657 2.29111 67.4424 1.74832 69.2701 1.47998" stroke="#EEEEEE" stroke-width="3.5" stroke-miterlimit="10"/>
</g>
<defs>
<clipPath id="clip0_84_573">
<rect width="72.32" height="102.93" fill="white"/>
</clipPath>
</defs>
</svg>

<svg xmlns="http://www.w3.org/2000/svg" viewBox="0 0 72.32 102.93"><defs><style>.cls-1,.cls-2{fill:none;stroke:#1f1f1f;stroke-width:3.5px;}.cls-1{stroke-linejoin:round;}.cls-2{stroke-miterlimit:10;}</style></defs><g id="Layer_2" data-name="Layer 2"><g id="Layer_9" data-name="Layer 9"><path class="cls-1" d="M26.27,99.44a27.29,27.29,0,0,1-3.1-.82C5.53,92.8-3.08,70.81,4,49.5s27-33.85,44.67-28a26.77,26.77,0,0,1,3,1.18c-14-2.59-30,10.43-36.61,30.5S13.45,93.17,26.27,99.44Z"/><path class="cls-2" d="M67.91,70.6c-7,21.31-24.57,34.67-39.18,29.85a19,19,0,0,1-2.46-1C13.45,93.17,8.38,73.22,15,53.15S37.56,20.06,51.6,22.65a19.48,19.48,0,0,1,2.58.65C68.79,28.12,74.94,49.3,67.91,70.6Z"/><path class="cls-2" d="M51.6,22.65C51.91,20.56,54,7.92,64,3.09a18.35,18.35,0,0,1,5.27-1.61"/></g></g></svg>
